Adwaita++/apps/scalable/codeblocks.svg

<svg enable-background="new" height="128" viewBox="0 0 128 128" width="128" xmlns="http://www.w3.org/2000/svg" xmlns:xlink="http://www.w3.org/1999/xlink">
  <linearGradient id="linearGradient1097" gradientTransform="matrix(1.0015061 0 0 .99993452 72.09037 56.015192)" gradientUnits="userSpaceOnUse" x1="43.844" x2="-60" y1="234" y2="234">
    <stop offset="0" stop-color="#d5d3cf"/>
    <stop offset=".038" stop-color="#e3e2df"/>
    <stop offset=".077" stop-color="#c0bfbc"/>
    <stop offset=".923" stop-color="#c0bfbc"/>
    <stop offset=".962" stop-color="#e3e2df"/>
    <stop offset="1" stop-color="#d5d3cf"/>
  </linearGradient>
  <g transform="translate(0 -172)">
    <rect fill="url(#linearGradient1097)" height="48" rx="8" width="104" x="12" y="240"/>
    <g fill="none">
      <path d="m12 232h104" stroke="#deddda" stroke-width="4"/>
      <path d="m12 231h104" stroke="#c0bfbc" stroke-width="2"/>
      <path d="m64 184v100" stroke="#deddda" stroke-width="4"/>
    </g>
    <path d="m12 61.957031v40.042969c0 1.108.223203 2.16139.626953 3.11914s.987938 1.81997 1.710938 2.54297 1.585218 1.30719 2.542968 1.71094 2.011141.62695 3.119141.62695h42.042969v-48.042969z" fill="#f5c211" transform="translate(0 172)"/>
    <path d="m116.04297 230.04297v-40.04297c0-1.108-.2232-2.16139-.62695-3.11914s-.98794-1.81997-1.71094-2.54297-1.58522-1.30719-2.54297-1.71094-2.01114-.62695-3.11914-.62695h-42.04297v48.04297z" fill="#26a269"/>
    <path d="m116.04297 233.95703v40.04297c0 1.108-.2232 2.16139-.62695 3.11914s-.98794 1.81997-1.71094 2.54297-1.58522 1.30719-2.54297 1.71094-2.01114.62695-3.11914.62695h-42.04297v-48.04297z" fill="#1a5fb4"/>
    <path d="m12 230.04297v-40.04297c0-1.108.2232-2.16139.62695-3.11914s.98794-1.81997 1.71094-2.54297 1.58522-1.30719 2.54297-1.71094 2.01114-.62695 3.11914-.62695h42.04297v48.04297z" fill="#c01c28"/>
  </g>
</svg>

<?xml version="1.0" encoding="UTF-8" standalone="no"?>
<svg
   xmlns:dc="http://purl.org/dc/elements/1.1/"
   xmlns:cc="http://creativecommons.org/ns#"
   xmlns:rdf="http://www.w3.org/1999/02/22-rdf-syntax-ns#"
   xmlns:svg="http://www.w3.org/2000/svg"
   xmlns="http://www.w3.org/2000/svg"
   xmlns:xlink="http://www.w3.org/1999/xlink"
   xmlns:sodipodi="http://sodipodi.sourceforge.net/DTD/sodipodi-0.dtd"
   xmlns:inkscape="http://www.inkscape.org/namespaces/inkscape"
   width="128"
   height="128"
   version="1.0"
   viewBox="0 0 128 128"
   style="enable-background:new"
   id="svg52"
   sodipodi:docname="codeblocks.svg"
   inkscape:version="0.92.3 (2405546, 2018-03-11)">
  <metadata
     id="metadata56">
    <rdf:RDF>
      <cc:Work
         rdf:about="">
        <dc:format>image/svg+xml</dc:format>
        <dc:type
           rdf:resource="http://purl.org/dc/dcmitype/StillImage" />
      </cc:Work>
    </rdf:RDF>
  </metadata>
  <sodipodi:namedview
     pagecolor="#ffffff"
     bordercolor="#666666"
     borderopacity="1"
     objecttolerance="10"
     gridtolerance="10"
     guidetolerance="10"
     inkscape:pageopacity="0"
     inkscape:pageshadow="2"
     inkscape:window-width="1920"
     inkscape:window-height="1009"
     id="namedview54"
     showgrid="false"
     inkscape:zoom="7.8773585"
     inkscape:cx="64.021485"
     inkscape:cy="65"
     inkscape:window-x="0"
     inkscape:window-y="34"
     inkscape:window-maximized="1"
     inkscape:current-layer="layer1" />
  <title
     id="title4162">
  Adwaita Icon Template
 </title>
  <defs
     id="defs19">
    <linearGradient
       id="linearGradient1115">
      <stop
         id="stop1103"
         offset="0"
         style="stop-color:#d5d3cf" />
      <stop
         style="stop-color:#e3e2df"
         id="stop1105"
         offset=".038" />
      <stop
         style="stop-color:#c0bfbc"
         id="stop1107"
         offset=".077" />
      <stop
         style="stop-color:#c0bfbc"
         id="stop1109"
         offset=".923" />
      <stop
         style="stop-color:#e3e2df"
         id="stop1111"
         offset=".962" />
      <stop
         id="stop1113"
         offset="1"
         style="stop-color:#d5d3cf" />
    </linearGradient>
    <linearGradient
       id="linearGradient6058">
      <stop
         style="stop-color:#ffffff"
         id="stop6054"
         offset="0" />
      <stop
         style="stop-color:#f6f5f4"
         id="stop6056"
         offset="1" />
    </linearGradient>
    <linearGradient
       id="paint3_linear-2-6-5"
       x2="1"
       gradientTransform="matrix(0,6,-12,0,-64,209.99687)"
       gradientUnits="userSpaceOnUse">
      <stop
         id="stop91-0-7-4"
         stop-color="#C01C27" />
      <stop
         id="stop93-2-5-7"
         offset="1"
         stop-color="#E01B24" />
    </linearGradient>
    <linearGradient
       id="linearGradient1097"
       x1="43.844"
       x2="-60"
       y1="234"
       y2="234"
       gradientTransform="matrix(1.0015061,0,0,0.99993452,72.09037,56.015192)"
       gradientUnits="userSpaceOnUse"
       xlink:href="#linearGradient1115" />
    <radialGradient
       id="radialGradient1099"
       cx="-24.239"
       cy="225.596"
       r="24"
       fx="-24.239"
       fy="225.596"
       gradientTransform="matrix(1.757743,-9.5621778e-8,3.7652438e-8,1.9495846,106.60563,-336.54495)"
       gradientUnits="userSpaceOnUse"
       xlink:href="#linearGradient6058" />
    <linearGradient
       id="linearGradient1383"
       x2="1"
       gradientTransform="matrix(0,6,-12,0,-264,209.99687)"
       gradientUnits="userSpaceOnUse"
       xlink:href="#paint3_linear-2-6-5" />
  </defs>
  <g
     id="layer1"
     transform="translate(0,-172)">
    <rect
       width="104"
       height="48"
       x="12"
       y="240"
       rx="8"
       ry="8"
       style="fill:url(#linearGradient1097)"
       id="rect21" />
    <path
       d="M 12,232 H 116"
       style="fill:none;stroke:#deddda;stroke-width:4"
       id="path25" />
    <path
       style="fill:none;stroke:#c0bfbc;stroke-width:2"
       d="M 12,231 H 116"
       id="path27" />
    <path
       style="fill:none;stroke:#deddda;stroke-width:4"
       d="M 64,184 V 284"
       id="path29" />
    <path
       d="M 12 61.957031 L 12 102 C 12 103.108 12.223203 104.16139 12.626953 105.11914 C 13.030703 106.07689 13.614891 106.93911 14.337891 107.66211 C 15.060891 108.38511 15.923109 108.9693 16.880859 109.37305 C 17.838609 109.7768 18.892 110 20 110 L 62.042969 110 L 62.042969 61.957031 L 12 61.957031 z"
       transform="translate(0,172)"
       style="fill:#f5c211;fill-opacity:1"
       id="path31" />
    <path
       style="fill:#26a269;fill-opacity:1"
       d="M 116.04297,230.04297 V 190 c 0,-1.108 -0.2232,-2.16139 -0.62695,-3.11914 -0.40375,-0.95775 -0.98794,-1.81997 -1.71094,-2.54297 -0.723,-0.723 -1.58522,-1.30719 -2.54297,-1.71094 C 110.20436,182.2232 109.15097,182 108.04297,182 H 66 v 48.04297 z"
       id="path45" />
    <path
       id="path1687"
       style="fill:#1a5fb4;fill-opacity:1"
       d="M 116.04297,233.95703 V 274 c 0,1.108 -0.2232,2.16139 -0.62695,3.11914 -0.40375,0.95775 -0.98794,1.81997 -1.71094,2.54297 -0.723,0.723 -1.58522,1.30719 -2.54297,1.71094 C 110.20436,281.7768 109.15097,282 108.04297,282 H 66 v -48.04297 z"
       inkscape:connector-curvature="0" />
    <path
       id="path1718"
       d="M 12,230.04297 V 190 c 0,-1.108 0.2232,-2.16139 0.62695,-3.11914 0.40375,-0.95775 0.98794,-1.81997 1.71094,-2.54297 0.723,-0.723 1.58522,-1.30719 2.54297,-1.71094 C 17.83861,182.2232 18.892,182 20,182 h 42.04297 v 48.04297 z"
       style="fill:#c01c28;fill-opacity:1"
       inkscape:connector-curvature="0" />
  </g>
</svg>
